Newaita/actions/24/dialog-xml-editor.svg

<svg height="24" viewBox="0 0 24 24" width="24" xmlns="http://www.w3.org/2000/svg"><g fill="#424242"><path d="m14.253906 1.421875.957032.257813c.265624.070312.421874.34375.351562.609374l-5.394531 20.125c-.070313.265626-.339844.421876-.605469.351563l-.960938-.257813c-.261718-.070312-.421874-.339843-.347656-.605468l5.390625-20.128906c.070313-.265626.34375-.421876.609375-.351563zm0 0" fill-opacity=".984472"/><g fill-rule="evenodd"><path d="m7.640625 6.398438c-.1875.007812-.367187.085937-.5.222656l-4.960937 4.960937c-.285157.28125-.285157.742188 0 1.027344l4.960937 4.960937c.183594.1875.453125.261719.707031.195313.25-.066406.449219-.265625.515625-.519531.066407-.25-.007812-.519532-.195312-.703125l-4.445313-4.449219 4.445313-4.445312c.214843-.210938.28125-.53125.164062-.804688-.117187-.277344-.390625-.453125-.691406-.445312zm0 0"/><path d="m16.175781 6.398438c.1875.007812.367188.085937.496094.222656l4.964844 4.960937c.28125.28125.28125.742188 0 1.027344l-4.964844 4.960937c-.179687.1875-.449219.261719-.703125.195313s-.449219-.265625-.519531-.519531c-.066407-.25.007812-.519532.195312-.703125l4.449219-4.449219-4.449219-4.445312c-.214843-.210938-.277343-.53125-.160156-.804688.117187-.277344.390625-.453125.691406-.445312zm0 0"/></g></g></svg>

<svg xmlns="http://www.w3.org/2000/svg" xmlns:xlink="http://www.w3.org/1999/xlink" width="24px" height="24px" viewBox="0 0 24 24" version="1.1">
<g id="surface1">
<path style=" stroke:none;fill-rule:nonzero;fill:rgb(25.882354%,25.882354%,25.882354%);fill-opacity:0.984472;" d="M 14.253906 1.421875 L 15.210938 1.679688 C 15.476562 1.75 15.632812 2.023438 15.5625 2.289062 L 10.167969 22.414062 C 10.097656 22.679688 9.828125 22.835938 9.5625 22.765625 L 8.601562 22.507812 C 8.339844 22.4375 8.179688 22.167969 8.253906 21.902344 L 13.644531 1.773438 C 13.714844 1.507812 13.988281 1.351562 14.253906 1.421875 Z M 14.253906 1.421875 "/>
<path style=" stroke:none;fill-rule:evenodd;fill:rgb(25.882354%,25.882354%,25.882354%);fill-opacity:1;" d="M 7.640625 6.398438 C 7.453125 6.40625 7.273438 6.484375 7.140625 6.621094 L 2.179688 11.582031 C 1.894531 11.863281 1.894531 12.324219 2.179688 12.609375 L 7.140625 17.570312 C 7.324219 17.757812 7.59375 17.832031 7.847656 17.765625 C 8.097656 17.699219 8.296875 17.5 8.363281 17.246094 C 8.429688 16.996094 8.355469 16.726562 8.167969 16.542969 L 3.722656 12.09375 L 8.167969 7.648438 C 8.382812 7.4375 8.449219 7.117188 8.332031 6.84375 C 8.214844 6.566406 7.941406 6.390625 7.640625 6.398438 Z M 7.640625 6.398438 "/>
<path style=" stroke:none;fill-rule:evenodd;fill:rgb(25.882354%,25.882354%,25.882354%);fill-opacity:1;" d="M 16.175781 6.398438 C 16.363281 6.40625 16.542969 6.484375 16.671875 6.621094 L 21.636719 11.582031 C 21.917969 11.863281 21.917969 12.324219 21.636719 12.609375 L 16.671875 17.570312 C 16.492188 17.757812 16.222656 17.832031 15.96875 17.765625 C 15.714844 17.699219 15.519531 17.5 15.449219 17.246094 C 15.382812 16.996094 15.457031 16.726562 15.644531 16.542969 L 20.09375 12.09375 L 15.644531 7.648438 C 15.429688 7.4375 15.367188 7.117188 15.484375 6.84375 C 15.601562 6.566406 15.875 6.390625 16.175781 6.398438 Z M 16.175781 6.398438 "/>
</g>
</svg>
